ОкеанВКонцеДороги/svg/wavesdecor.svg

<svg xmlns="http://www.w3.org/2000/svg" width="1409" height="453" fill="none" viewBox="0 0 1409 453"><path fill="url(#a)" d="M1351.52 31.767c84.6 37.391 68.94 143.737-4.09 191.315-58.42 38.063-130.49-6.071-139.16-28.876 4.5-13.204-7.64-40.522-25.57-30.314-16.56 9.425-26.65 22.815-35.48 17.902-39.05-21.727 6.15-45.264 9.56-75.587 1.79-15.92-8.37-21-37.34-.607s-35.04 42.066-36.1 63.347c-1.07 21.281 11.02 30.123 1.51 22.643-55.56-43.666-9.18-133.005 78.23-168.288 87.42-35.283 103.84-28.926 188.44 8.465"/><path fill="url(#b)" d="M1113.03 253.389c34.84 19.704 43.38 15.342 60.79 6.075-13.06 47.126-121.59 47.191-127.19 26.422-5.6-20.768 31.56-52.201 66.4-32.497"/><path fill="url(#c)" d="M1070.61 369.699c41.8-15.316 4.08 20.318-20 40.05-7.6 1.345-24.96 7.399-34.36 8.483-57.325 6.617-101.329-49.976-160.362-32.736-52.105 15.216-95.659 51.581-150.28 60.274-33.181 5.281-62.695-10.047-89.228-26.313 84.413 45.699 172.527-45.154 250.77-70.271 43.423-13.939 91.532 15.086 134.21 21.634 16.29 2.501 54.79 11.082 69.25-1.121"/><path fill="url(#d)" d="M587.845 413.415c6.678 11.111 11.151 18.125 14.199 30.831.736 3.068 1.064 3.074 0 0-22.44-64.81-130.995 10.289-172.975 7.928-42.792-2.408-77.763-10.462-109.731-43.046-14.145-14.417-26.839-45.018-49.994-45.773-11.149-.364-25.344 3.526-35.056-4.068-30.243-23.647-21.267-93.266 28.335-88.051 73.128 7.688 55.649 107.09 114.485 120.619 49.783 11.448 178.528-32.028 210.737 21.56"/><path fill="url(#e)" d="M340.567 288.094c.262 12.813 1.723 29.422 6.456 41.353-18.324-39.658-91.212-109.733-131.971-108.161-45.099 1.739-100.183 18.157-135.024-20.261-7.588-8.366-13.71-32.078-25.582-34.992-18.94-4.65-60.494-17.398-53.704-45.864 20.926-87.728 337.751 66.714 339.825 167.925"/><path fill="url(#f)" d="M692.878 399.699c-60.714 43.121-109.577-67.711-134.584-100.688-39.205-51.702-123.311-56.379-176.993-31.602-41.632 19.215-11.583 70.017 17.556 81.327 19.3 7.49 41.299-.919 60.377-3.905 84.984-13.298 146.222 86.561 226.05 73.378 22.208-3.667 30.639-37.77 7.594-18.51"/><path fill="url(#g)" d="M1053.82 217.093c-10.7 30.555-70.72 56.053-68.714 22.653s41.774 4.472 68.714-22.653"/><defs><linearGradient id="a" x1="1642.9" x2="-237.099" y1="389.81" y2="238.809" gradientUnits="userSpaceOnUse"><stop stop-color="#5c9cca"/><stop offset="1" stop-color="#8c9cc5"/></linearGradient><linearGradient id="b" x1="1642.9" x2="-237.099" y1="389.81" y2="238.809" gradientUnits="userSpaceOnUse"><stop stop-color="#5c9cca"/><stop offset="1" stop-color="#8c9cc5"/></linearGradient><linearGradient id="c" x1="1642.9" x2="-237.099" y1="389.81" y2="238.809" gradientUnits="userSpaceOnUse"><stop stop-color="#5c9cca"/><stop offset="1" stop-color="#8c9cc5"/></linearGradient><linearGradient id="d" x1="1642.9" x2="-237.099" y1="389.81" y2="238.809" gradientUnits="userSpaceOnUse"><stop stop-color="#5c9cca"/><stop offset="1" stop-color="#8c9cc5"/></linearGradient><linearGradient id="e" x1="1642.9" x2="-237.099" y1="389.81" y2="238.809" gradientUnits="userSpaceOnUse"><stop stop-color="#5c9cca"/><stop offset="1" stop-color="#8c9cc5"/></linearGradient><linearGradient id="f" x1="1642.9" x2="-237.099" y1="389.81" y2="238.809" gradientUnits="userSpaceOnUse"><stop stop-color="#5c9cca"/><stop offset="1" stop-color="#8c9cc5"/></linearGradient><linearGradient id="g" x1="1642.9" x2="-237.099" y1="389.81" y2="238.809" gradientUnits="userSpaceOnUse"><stop stop-color="#5c9cca"/><stop offset="1" stop-color="#8c9cc5"/></linearGradient></defs></svg>

<svg width="1409" height="453" viewBox="0 0 1409 453" fill="none" xmlns="http://www.w3.org/2000/svg">
<path d="M1351.52 31.7672C1436.12 69.1582 1420.46 175.504 1347.43 223.082C1289.01 261.145 1216.94 217.011 1208.27 194.206C1212.77 181.002 1200.63 153.684 1182.7 163.892C1166.14 173.317 1156.05 186.707 1147.22 181.794C1108.17 160.067 1153.37 136.53 1156.78 106.207C1158.57 90.2875 1148.41 85.207 1119.44 105.6C1090.47 125.993 1084.4 147.666 1083.34 168.947C1082.27 190.228 1094.36 199.07 1084.85 191.59C1029.29 147.924 1075.67 58.585 1163.08 23.3022C1250.5 -11.9806 1266.92 -5.6239 1351.52 31.7672Z" fill="url(#paint0_linear_399_8426)"/>
<path d="M1113.03 253.389C1147.87 273.093 1156.41 268.731 1173.82 259.464C1160.76 306.59 1052.23 306.655 1046.63 285.886C1041.03 265.118 1078.19 233.685 1113.03 253.389Z" fill="url(#paint1_linear_399_8426)"/>
<path d="M1070.61 369.699C1112.41 354.383 1074.69 390.017 1050.61 409.749C1043.01 411.094 1025.65 417.148 1016.25 418.232C958.925 424.849 914.921 368.256 855.888 385.496C803.783 400.712 760.229 437.077 705.608 445.77C672.427 451.051 642.913 435.723 616.38 419.457C700.793 465.156 788.907 374.303 867.15 349.186C910.573 335.247 958.682 364.272 1001.36 370.82C1017.65 373.321 1056.15 381.902 1070.61 369.699Z" fill="url(#paint2_linear_399_8426)"/>
<path d="M587.845 413.415C594.523 424.526 598.996 431.54 602.044 444.246C602.78 447.314 603.108 447.32 602.044 444.246C579.604 379.436 471.049 454.535 429.069 452.174C386.277 449.766 351.306 441.712 319.338 409.128C305.193 394.711 292.499 364.11 269.344 363.355C258.195 362.991 244 366.881 234.288 359.287C204.045 335.64 213.021 266.021 262.623 271.236C335.751 278.924 318.272 378.326 377.108 391.855C426.891 403.303 555.636 359.827 587.845 413.415Z" fill="url(#paint3_linear_399_8426)"/>
<path d="M340.567 288.094C340.829 300.907 342.29 317.516 347.023 329.447C328.699 289.789 255.811 219.714 215.052 221.286C169.953 223.025 114.869 239.443 80.0275 201.025C72.4403 192.659 66.3175 168.947 54.4456 166.033C35.5064 161.383 -6.04826 148.635 0.74199 120.169C21.6683 32.4414 338.493 186.883 340.567 288.094Z" fill="url(#paint4_linear_399_8426)"/>
<path d="M692.878 399.699C632.164 442.82 583.301 331.988 558.294 299.011C519.089 247.309 434.983 242.632 381.301 267.409C339.669 286.624 369.718 337.426 398.857 348.736C418.157 356.226 440.156 347.817 459.234 344.831C544.218 331.533 605.456 431.392 685.284 418.209C707.492 414.542 715.923 380.439 692.878 399.699Z" fill="url(#paint5_linear_399_8426)"/>
<path d="M1053.82 217.093C1043.12 247.648 983.1 273.146 985.106 239.746C987.113 206.346 1026.88 244.218 1053.82 217.093Z" fill="url(#paint6_linear_399_8426)"/>
<defs>
<linearGradient id="paint0_linear_399_8426" x1="1642.9" y1="389.81" x2="-237.099" y2="238.809" gradientUnits="userSpaceOnUse">
<stop stop-color="#5C9CCA"/>
<stop offset="1" stop-color="#8C9CC5"/>
</linearGradient>
<linearGradient id="paint1_linear_399_8426" x1="1642.9" y1="389.81" x2="-237.099" y2="238.809" gradientUnits="userSpaceOnUse">
<stop stop-color="#5C9CCA"/>
<stop offset="1" stop-color="#8C9CC5"/>
</linearGradient>
<linearGradient id="paint2_linear_399_8426" x1="1642.9" y1="389.81" x2="-237.099" y2="238.809" gradientUnits="userSpaceOnUse">
<stop stop-color="#5C9CCA"/>
<stop offset="1" stop-color="#8C9CC5"/>
</linearGradient>
<linearGradient id="paint3_linear_399_8426" x1="1642.9" y1="389.81" x2="-237.099" y2="238.809" gradientUnits="userSpaceOnUse">
<stop stop-color="#5C9CCA"/>
<stop offset="1" stop-color="#8C9CC5"/>
</linearGradient>
<linearGradient id="paint4_linear_399_8426" x1="1642.9" y1="389.81" x2="-237.099" y2="238.809" gradientUnits="userSpaceOnUse">
<stop stop-color="#5C9CCA"/>
<stop offset="1" stop-color="#8C9CC5"/>
</linearGradient>
<linearGradient id="paint5_linear_399_8426" x1="1642.9" y1="389.81" x2="-237.099" y2="238.809" gradientUnits="userSpaceOnUse">
<stop stop-color="#5C9CCA"/>
<stop offset="1" stop-color="#8C9CC5"/>
</linearGradient>
<linearGradient id="paint6_linear_399_8426" x1="1642.9" y1="389.81" x2="-237.099" y2="238.809" gradientUnits="userSpaceOnUse">
<stop stop-color="#5C9CCA"/>
<stop offset="1" stop-color="#8C9CC5"/>
</linearGradient>
</defs>
</svg>
